**kern	**kern	**dynam
*part1	*part1	*part1
*staff2	*staff1	*
*I"Piano	*	*
*clefF4	*clefG2	*
*k[]	*k[]	*
=1	=1	=1
*	*^	*
4.DD 4.D	(16BLL	4B	<
.	16d	.	.
.	16f	.	.
.	16a	.	.
.	16g#X	8f	.
.	16bJJ)	.	.
=	=	=	=
4EE) 4E	(16eLL	8cL	[ >
.	16aJ	.	.
.	8c) 8e	16BL	.
.	.	16AJ<	]
8EEE' 8EE	8dJ 8e	8G#XJ<	.
=	=	=	=
(4.AA 4.A	(8eL	16cLL	.
.	.	16A<	.
.	8a	16e	.
.	.	16c<	.
.	8ccJ)	16a	<
.	.	16eJJ	.
*	*v	*v	*
=	=	=
4DD 4D	(16bLL	[
.	16B	>
.	16d	.
.	16f#X	.
8EE 8E	16e	.
.	16dJJ)	.
=	=	=
4AAA) 4AA	(16cLL	]
.	16e	.
.	16a	.
.	16cc	.
8r	16b	.
.	16aJJ)	.
=	=	=
(4.CC 4.C	(16gnLL	.
.	16b-X	.
.	16a	.
.	16g	.
.	16f)	.
.	[16eJJ	.
=	=	=
4.FF 4.F	(16eLL] 16a	.
.	16g	.
.	16f	.
.	16e	.
.	16d)	<
.	[16aJJ 16bn	.
=	=	=
*-	*-	*-
!!!system-decoration: {(s1,s2)}
!!!RDF**kern: < = below
